COLOR/categories 16/16/unity-display-panel.svg

<svg height="16" viewBox="0 0 4.2333332 4.233333" width="16" xmlns="http://www.w3.org/2000/svg" xmlns:xlink="http://www.w3.org/1999/xlink"><linearGradient id="a" gradientTransform="matrix(.00953665 0 0 .00953638 -.240527 291.69127)" gradientUnits="userSpaceOnUse" x1="459.03448" x2="35.310345" y1="419.23337" y2="207.36522"><stop offset="0" stop-color="#fb7c38"/><stop offset="1" stop-color="#9b33ae"/></linearGradient><g transform="translate(0 -292.76669)"><path d="m1.0852653 293.03126c-.18817435-.00079-.3374655.003-.46405275.0238-.12673012.0211-.23693173.0626-.31884408.1447-.081915.0821-.12344136.19275-.14469533.31936-.0201877.12031-.0243946.26322-.0247915.43821-.00002117.009-.00052917.016-.00052917.0253v1.53686c0 .18798.004048.33665.0253206.46302.0212725.12638.0627406.23703.14469533.31885.0819547.0818.19230181.12295.31884408.14417.12653963.0212.27569848.0253.46405272.0253h1.0314622 1.0314623c.1883542 0 .3375131-.004.4640527-.0253.1265422-.0212.2368894-.0624.3188441-.14417.081955-.0818.1234281-.19247.1446953-.31885.021273-.12637.025321-.27504.025321-.46302v-1.53686c0-.009-.0005291-.0162-.0005291-.0253-.0005292-.17499-.0046-.3179-.024792-.43821-.021246-.12661-.06278-.23726-.1446953-.31936-.081912-.0821-.192114-.12363-.3188441-.1447-.1267275-.0211-.276098-.0247-.4645713-.0238h-1.0309435z" fill="url(#a)"/><path d="m.96842265 293.03126c-.17055574.00016-.3063796.004-.41742258.0249-.11316493.0208-.20541985.0597-.27316641.13369-.0677677.074-.10344944.17514-.12246505.29879-.006773.044-.0111125.0929-.0145785.14443-.006244.093-.00844.19776-.00844.32079v1.59419c0 .19114.004022.34179.0230188.46556.0189971.12392.0546047.22501.12231423.29929.0677201.0743.16019992.11341.27347334.13402.11308027.0206.25086733.0248.42586277.0238l.0813809.00008v-3.43955z" opacity=".3"/><path d="m4.1015625 1c-.7112101-.00298583-1.2754663.0112296-1.7539063.0898438-.4789799.079748-.8954881.2365757-1.2050781.546875-.30959998.3102992-.46654501.7285052-.54687498 1.2070312-.07629996.454715-.0922499.9948705-.09375 1.65625-.00008001.0340157-.00195312.0605535-.00195312.0957031v.5c0-.0351496.00187311-.0616874.00195312-.0957031.0015001-.6613795.01745004-1.201535.09375-1.65625.08032997-.478526.237275-.896732.54687498-1.2070312.30959-.3102993.7260982-.467127 1.2050781-.546875.47844-.0786142 1.0426962-.0928296 1.7539063-.0898438h3.8984375 3.896484c.71234-.0034016 1.27689.0100957 1.75586.0898438.47898.0796346.895489.2365757 1.205078.546875.309601.3102992.466575.7285052.546875 1.2070312.076316.454715.09175.9949083.09375 1.65625 0 .0343937.001953.0616874.001953.0957031v-.5c0-.0340157-.001953-.0613094-.001953-.0957031-.002-.6613795-.017434-1.201535-.09375-1.65625-.0803-.478526-.237274-.896732-.546875-1.2070312-.309589-.3102993-.726098-.4672404-1.205078-.546875-.47897-.0797481-1.04352-.09324537-1.75586-.0898438h-3.896484z" fill="#fff" opacity=".3" transform="matrix(.26458333 0 0 .26458333 0 292.76669)"/><path d="m3.1481366 296.47073c.18817.00079.33747-.003.46405-.0238.12673-.0211.23694-.0626.31885-.14469.0819-.0821.12344-.19275.14469-.31936.0202-.12031.0244-.26323.0248-.43822.00002-.009.00051-.016.00051-.0253v-.13229c0 .009-.00049.0163-.00051.0253-.0004.17499-.005.31791-.0248.43822-.0213.12661-.0628.23726-.14469.31936-.0819.0821-.19212.12359-.31885.14469-.12658.0208-.27588.0246-.46405.0238h-1.03146-1.03095c-.18846998.0009-.33783998-.003-.46456998-.0238-.12673-.0211-.23693-.0626-.31884-.14469-.0819-.0821-.12345-.19275-.1447-.31936-.0202-.12031-.0243-.26324-.0248-.43822 0-.009-.00052-.0163-.00052-.0253v.13229c0 .009.00052.0162.00052.0253.00053.17499.005.31791.0248.43822.0212.12661.0628.23726.1447.31936s.19211.12362.31884.14469c.12673.0211.2761.0247.46456998.0238h1.03095z" opacity=".2"/></g></svg>

<?xml version="1.0" encoding="UTF-8" standalone="no"?>
<!-- Created with Inkscape (http://www.inkscape.org/) -->

<svg
   xmlns:dc="http://purl.org/dc/elements/1.1/"
   xmlns:cc="http://creativecommons.org/ns#"
   xmlns:rdf="http://www.w3.org/1999/02/22-rdf-syntax-ns#"
   xmlns:svg="http://www.w3.org/2000/svg"
   xmlns="http://www.w3.org/2000/svg"
   xmlns:xlink="http://www.w3.org/1999/xlink"
   xmlns:sodipodi="http://sodipodi.sourceforge.net/DTD/sodipodi-0.dtd"
   xmlns:inkscape="http://www.inkscape.org/namespaces/inkscape"
   width="16"
   height="16"
   viewBox="0 0 4.2333332 4.233333"
   version="1.1"
   id="svg940"
   inkscape:version="0.92.4 (5da689c313, 2019-01-14)"
   sodipodi:docname="user-desktop.svg">
  <defs
     id="defs934">
    <clipPath
       clipPathUnits="userSpaceOnUse"
       id="clipPath959">
      <path
         style="color:#000000;display:inline;overflow:visible;visibility:visible;opacity:1;fill:#46a926;fill-opacity:1;fill-rule:nonzero;stroke:none;stroke-width:2;stroke-miterlimit:4;stroke-dasharray:none;stroke-opacity:1;marker:none;enable-background:accumulate"
         d="m 330.1929,133.99999 c -5.61538,0 -6.21958,0.57678 -6.19206,6.20352 v 7.79648 7.79648 c -0.0276,5.62673 0.57668,6.20351 6.19206,6.20351 h 11.615 c 5.6154,0 6.19208,-0.5767 6.19208,-6.20351 v -7.79648 -7.79648 c 0,-5.6268 -0.5767,-6.20352 -6.19208,-6.20352 z"
         id="path961"
         inkscape:connector-curvature="0"
         sodipodi:nodetypes="scccssscsss" />
    </clipPath>
    <clipPath
       clipPathUnits="userSpaceOnUse"
       id="clipPath983">
      <path
         sodipodi:nodetypes="scccssscsss"
         inkscape:connector-curvature="0"
         id="path985"
         d="m 325.09646,237 c -2.80769,0 -3.10979,0.28839 -3.09603,3.10176 V 244 v 3.89824 c -0.0138,2.81337 0.28834,3.10176 3.09603,3.10176 h 5.8075 C 333.71166,251 334,250.71165 334,247.89824 V 244 240.10176 C 334,237.28836 333.71165,237 330.90396,237 Z"
         style="color:#000000;display:inline;overflow:visible;visibility:visible;opacity:1;fill:#46a926;fill-opacity:1;fill-rule:nonzero;stroke:none;stroke-width:2;stroke-miterlimit:4;stroke-dasharray:none;stroke-opacity:1;marker:none;enable-background:accumulate" />
    </clipPath>
    <clipPath
       clipPathUnits="userSpaceOnUse"
       id="clipPath1225">
      <path
         sodipodi:nodetypes="sssssssss"
         inkscape:connector-curvature="0"
         id="path1227"
         d="m 330.31054,236.5 c 4.54055,0 5.18946,0.64729 5.18946,5.18359 v 3.63282 c 0,4.53629 -0.64891,5.18359 -5.18946,5.18359 h -4.62109 c -4.54053,0 -5.18945,-0.6473 -5.18945,-5.18359 v -3.63282 c 0,-4.5363 0.64892,-5.18359 5.18946,-5.18359 z"
         style="opacity:1;fill:#325fd1;fill-opacity:1;stroke:none;stroke-width:2;stroke-linecap:round;stroke-linejoin:round;stroke-miterlimit:4;stroke-dasharray:none;stroke-dashoffset:0;stroke-opacity:1" />
    </clipPath>
    <clipPath
       clipPathUnits="userSpaceOnUse"
       id="clipPath983-3">
      <path
         sodipodi:nodetypes="scccssscsss"
         inkscape:connector-curvature="0"
         id="path985-6"
         d="m 325.09646,237 c -2.80769,0 -3.10979,0.28839 -3.09603,3.10176 V 244 v 3.89824 c -0.0138,2.81337 0.28834,3.10176 3.09603,3.10176 h 5.8075 C 333.71166,251 334,250.71165 334,247.89824 V 244 240.10176 C 334,237.28836 333.71165,237 330.90396,237 Z"
         style="color:#000000;display:inline;overflow:visible;visibility:visible;opacity:1;fill:#46a926;fill-opacity:1;fill-rule:nonzero;stroke:none;stroke-width:2;stroke-miterlimit:4;stroke-dasharray:none;stroke-opacity:1;marker:none;enable-background:accumulate" />
    </clipPath>
    <clipPath
       clipPathUnits="userSpaceOnUse"
       id="clipPath983-7">
      <path
         sodipodi:nodetypes="scccssscsss"
         inkscape:connector-curvature="0"
         id="path985-5"
         d="m 325.09646,237 c -2.80769,0 -3.10979,0.28839 -3.09603,3.10176 V 244 v 3.89824 c -0.0138,2.81337 0.28834,3.10176 3.09603,3.10176 h 5.8075 C 333.71166,251 334,250.71165 334,247.89824 V 244 240.10176 C 334,237.28836 333.71165,237 330.90396,237 Z"
         style="color:#000000;display:inline;overflow:visible;visibility:visible;opacity:1;fill:#46a926;fill-opacity:1;fill-rule:nonzero;stroke:none;stroke-width:2;stroke-miterlimit:4;stroke-dasharray:none;stroke-opacity:1;marker:none;enable-background:accumulate" />
    </clipPath>
    <linearGradient
       inkscape:collect="always"
       xlink:href="#linearGradient1674"
       id="linearGradient920"
       gradientUnits="userSpaceOnUse"
       gradientTransform="matrix(0.00953665,0,0,0.00953638,-0.24052742,291.69127)"
       x1="459.03448"
       y1="419.23337"
       x2="35.310345"
       y2="207.36522" />
    <linearGradient
       inkscape:collect="always"
       id="linearGradient1674">
      <stop
         id="stop1670"
         offset="0"
         style="stop-color:#fb7c38;stop-opacity:1" />
      <stop
         id="stop1672"
         offset="1"
         style="stop-color:#9b33ae;stop-opacity:1" />
    </linearGradient>
  </defs>
  <sodipodi:namedview
     id="base"
     pagecolor="#ffffff"
     bordercolor="#666666"
     borderopacity="1.0"
     inkscape:pageopacity="0.0"
     inkscape:pageshadow="2"
     inkscape:zoom="26.09375"
     inkscape:cx="3.7824048"
     inkscape:cy="9.8682635"
     inkscape:document-units="mm"
     inkscape:current-layer="layer1"
     showgrid="false"
     units="px"
     inkscape:window-width="1920"
     inkscape:window-height="1016"
     inkscape:window-x="0"
     inkscape:window-y="27"
     inkscape:window-maximized="1" />
  <metadata
     id="metadata937">
    <rdf:RDF>
      <cc:Work
         rdf:about="">
        <dc:format>image/svg+xml</dc:format>
        <dc:type
           rdf:resource="http://purl.org/dc/dcmitype/StillImage" />
        <dc:title />
      </cc:Work>
    </rdf:RDF>
  </metadata>
  <g
     inkscape:label="Livello 1"
     inkscape:groupmode="layer"
     id="layer1"
     transform="translate(0,-292.76669)">
    <path
       inkscape:connector-curvature="0"
       style="color:#000000;display:inline;overflow:visible;visibility:visible;fill:url(#linearGradient920);fill-opacity:1;fill-rule:nonzero;stroke:none;stroke-width:0.26458332;marker:none;enable-background:accumulate"
       d="m 1.0852653,293.03126 c -0.18817435,-7.9e-4 -0.3374655,0.003 -0.46405275,0.0238 -0.12673012,0.0211 -0.23693173,0.0626 -0.31884408,0.1447 -0.081915,0.0821 -0.12344136,0.19275 -0.14469533,0.31936 -0.0201877,0.12031 -0.0243946,0.26322 -0.0247915,0.43821 -2.117e-5,0.009 -5.2917e-4,0.016 -5.2917e-4,0.0253 v 1.53686 c 0,0.18798 0.004048,0.33665 0.0253206,0.46302 0.0212725,0.12638 0.0627406,0.23703 0.14469533,0.31885 0.0819547,0.0818 0.19230181,0.12295 0.31884408,0.14417 0.12653963,0.0212 0.27569848,0.0253 0.46405272,0.0253 h 1.0314622 1.0314623 c 0.1883542,0 0.3375131,-0.004 0.4640527,-0.0253 0.1265422,-0.0212 0.2368894,-0.0624 0.3188441,-0.14417 0.081955,-0.0818 0.1234281,-0.19247 0.1446953,-0.31885 0.021273,-0.12637 0.025321,-0.27504 0.025321,-0.46302 v -1.53686 c 0,-0.009 -5.291e-4,-0.0162 -5.291e-4,-0.0253 -5.292e-4,-0.17499 -0.0046,-0.3179 -0.024792,-0.43821 -0.021246,-0.12661 -0.06278,-0.23726 -0.1446953,-0.31936 -0.081912,-0.0821 -0.192114,-0.12363 -0.3188441,-0.1447 -0.1267275,-0.0211 -0.276098,-0.0247 -0.4645713,-0.0238 H 2.1167275 Z"
       id="path918"
       inkscape:export-xdpi="95.996666"
       inkscape:export-ydpi="95.996666" />
    <path
       style="display:inline;opacity:0.3;vector-effect:none;fill:#000000;fill-opacity:1;stroke:none;stroke-width:0.26458332;stroke-linecap:butt;stroke-linejoin:miter;stroke-miterlimit:4;stroke-dasharray:none;stroke-dashoffset:0;stroke-opacity:1;enable-background:new"
       d="m 0.96842265,293.03126 c -0.17055574,1.6e-4 -0.3063796,0.004 -0.41742258,0.0249 -0.11316493,0.0208 -0.20541985,0.0597 -0.27316641,0.13369 -0.0677677,0.074 -0.10344944,0.17514 -0.12246505,0.29879 -0.006773,0.044 -0.0111125,0.0929 -0.0145785,0.14443 -0.006244,0.093 -0.00844,0.19776 -0.00844,0.32079 v 1.59419 c 0,0.19114 0.004022,0.34179 0.0230188,0.46556 0.0189971,0.12392 0.0546047,0.22501 0.12231423,0.29929 0.0677201,0.0743 0.16019992,0.11341 0.27347334,0.13402 0.11308027,0.0206 0.25086733,0.0248 0.42586277,0.0238 l 0.0813809,8e-5 v -3.43955 z"
       id="rect1767-6-7-6-6"
       inkscape:connector-curvature="0"
       sodipodi:nodetypes="cccccssccccccc"
       inkscape:export-xdpi="95.996666"
       inkscape:export-ydpi="95.996666" />
    <path
       style="color:#000000;display:inline;overflow:visible;visibility:visible;fill:#ffffff;fill-opacity:1;fill-rule:nonzero;stroke:none;stroke-width:0.99999994;marker:none;enable-background:accumulate;opacity:0.3"
       d="M 4.1015625 1 C 3.3903524 0.99701417 2.8260962 1.0112296 2.3476562 1.0898438 C 1.8686763 1.1695918 1.4521681 1.3264195 1.1425781 1.6367188 C 0.83297812 1.947018 0.67603309 2.365224 0.59570312 2.84375 C 0.51940316 3.298465 0.50345322 3.8386205 0.50195312 4.5 C 0.50187311 4.5340157 0.5 4.5605535 0.5 4.5957031 L 0.5 5.0957031 C 0.5 5.0605535 0.50187311 5.0340157 0.50195312 5 C 0.50345322 4.3386205 0.51940316 3.798465 0.59570312 3.34375 C 0.67603309 2.865224 0.83297812 2.447018 1.1425781 2.1367188 C 1.4521681 1.8264195 1.8686763 1.6695918 2.3476562 1.5898438 C 2.8260962 1.5112296 3.3903524 1.4970142 4.1015625 1.5 L 8 1.5 L 11.896484 1.5 C 12.608824 1.4965984 13.173374 1.5100957 13.652344 1.5898438 C 14.131324 1.6694784 14.547833 1.8264195 14.857422 2.1367188 C 15.167023 2.447018 15.323997 2.865224 15.404297 3.34375 C 15.480613 3.798465 15.496047 4.3386583 15.498047 5 C 15.498047 5.0343937 15.5 5.0616874 15.5 5.0957031 L 15.5 4.5957031 C 15.5 4.5616874 15.498047 4.5343937 15.498047 4.5 C 15.496047 3.8386205 15.480613 3.298465 15.404297 2.84375 C 15.323997 2.365224 15.167023 1.947018 14.857422 1.6367188 C 14.547833 1.3264195 14.131324 1.1694784 13.652344 1.0898438 C 13.173374 1.0100957 12.608824 0.99659843 11.896484 1 L 8 1 L 4.1015625 1 z "
       transform="matrix(0.26458333,0,0,0.26458333,0,292.76669)"
       id="path840" />
    <path
       id="path849"
       d="m 3.1481366,296.47073 c 0.18817,7.9e-4 0.33747,-0.003 0.46405,-0.0238 0.12673,-0.0211 0.23694,-0.0626 0.31885,-0.14469 0.0819,-0.0821 0.12344,-0.19275 0.14469,-0.31936 0.0202,-0.12031 0.0244,-0.26323 0.0248,-0.43822 2e-5,-0.009 5.1e-4,-0.016 5.1e-4,-0.0253 v -0.13229 c 0,0.009 -4.9e-4,0.0163 -5.1e-4,0.0253 -4e-4,0.17499 -0.005,0.31791 -0.0248,0.43822 -0.0213,0.12661 -0.0628,0.23726 -0.14469,0.31936 -0.0819,0.0821 -0.19212,0.12359 -0.31885,0.14469 -0.12658,0.0208 -0.27588,0.0246 -0.46405,0.0238 h -1.03146 -1.03095 c -0.18846998,9e-4 -0.33783998,-0.003 -0.46456998,-0.0238 -0.12673,-0.0211 -0.23693,-0.0626 -0.31884,-0.14469 -0.0819,-0.0821 -0.12345,-0.19275 -0.1447,-0.31936 -0.0202,-0.12031 -0.0243,-0.26324 -0.0248,-0.43822 0,-0.009 -5.2e-4,-0.0163 -5.2e-4,-0.0253 v 0.13229 c 0,0.009 5.2e-4,0.0162 5.2e-4,0.0253 5.3e-4,0.17499 0.005,0.31791 0.0248,0.43822 0.0212,0.12661 0.0628,0.23726 0.1447,0.31936 0.0819,0.0821 0.19211,0.12362 0.31884,0.14469 0.12673,0.0211 0.2761,0.0247 0.46456998,0.0238 h 1.03095 z"
       style="color:#000000;display:inline;overflow:visible;visibility:visible;opacity:0.2;fill:#000000;fill-opacity:1;fill-rule:nonzero;stroke:none;stroke-width:0.26458332;marker:none;enable-background:accumulate"
       inkscape:connector-curvature="0" />
  </g>
</svg>
